X:187
T:Magnus Memory
R:hp 32 reel
C:Steve Young
M:2/4
L:1/16
Q:1/4=70
K:D
|:e|f2ed AfdB|GBBd g2Bg|Aeec AecA|ddde f4|
f2ed AfdB|GBBd g2ed|BccB AecA|1gAfe d3:|2gAfe d2|]
|:fg|a2fd Aafd|GBBd g2Bg|Aeec AecA|ddde f3g|
a2fd Aafd|GBBd g2ed|BccB AecA|1gAfe d2:|2gAfe d3|]

